X:1
T:Jockey stays Lang at the Fair
M:9/8
L:1/8
R:Slip Jig
N:The key is tonally 'D', but the piece is written in
N:three sharps. Thus all 'g' notes are sharp.
B:Cocks - Tutor for the Northumbrian Half-Long Bagpipes (1925, No. 20, p. 12)
Z:AK/Fiddler's Companion
K:A
Tf3 df/g/a/f/ adf|Te3 Ac/d/e/c/ ecA|Tf3 df/g/a/f/ adf|eag edc Td2A:|
|:f/g/ag f/g/ag fed|eag eaf edc|f/g/ag f/g/ag fed|eag edc Td2A:|
|:d/c/d/e/f/g/ adf Td2f|e/d/c/d/e/c/ Ac/d/e/c/ ecA|d/c/d/e/f/g/ adf Td2f|eag edc Td2A:|
|:adf adf adf|ace ace ace|adf adf adf|eag edc Td2A:|]

